X: 56
M: C
L: 1/8
K: D
de |\
f2fd e2ec | dedB A2de | f2fd efec | ve<ua-.a2 v.a3A |
[e2d2][ed][ed] [e2c2][ec][ec] | BcdB A2de | f2fd efec | vA<ud-d2 d2 :||: fg |
a2af d2dA | BABd A2de | f2fd efec | e<a-[a2A2] [a3A2]A |
[e2d2][ed][ed] [e2c2][ec][ec] | BcdB A2de | f2fd efec | vA<ud-d2 d2 :|


